X:132
T:Ebb Tide, The
T:Neap Tide, The
R:hornpipe
D:Tommy Keane & Jacqueline McCarthy: The Wind among the Reeds
Z:id:hn-hornpipe-132
M:C|
L:1/8
K:G
dc | BdAB GABc | d2G2 G2bg | fdcA BcdB | cABG =F2dc |
B2AB GABc | defd g2 (3efg | fdcB cAdc | BdG2 G2 :|
|: ga | bgdB gdBG | DGBd gdbg | aAcA =fAcA | D=FcF dFcF |
BdAB GABc | defd g2 (3efg | fdcB cAdc | BdG2 G2 :|

